X:446
T:Thebes
C:Norman Blake
N:From the "Directions" album Transcribed by Mike Stangeland
R:bluegrass
L:1/8
Q:1/4=202
M:4/4
K:F
z6 A,C | D2 DE F2 FG | A2 AB AG EF | "C"GE DE DC A,=B, | CD =B,D "Am"_B,D A,C | 
"Dm"D2 DE FE FG | A2 AB AG EG | "C"[c2A2] [c2G2] "Am"[c2G2E2] [G2E2C2] | "Dm"D2 [f2d2A2] [f2d2A2] A,C | 
"Dm"DC DE FE FG | AG AB AG EF | "C"G2 DE DC A,=B, | CD =B,D "Am"_B,D A,C | "Dm"D2 DE FE FG | 
AG AB AG EG | "C"[c2A2] [c2G2] "Am"[c2G2E2] [G2E2C2] | "Dm"D2 [f2d2A2] [f2d2A2] G,A, | 
"C"CD " B part"EG A=B cA | Gc AG ED C2 | "Bb"B,C DF GF BG | FD CD B,4 | "E"E2 _AE _GA =AG | 
_A=A =B_A "E7"B_d =dB |: "G"=BG B_d =dB GA | "A"_dA de "A7"e2 e2 | "C"cA Gc AG EG | 
GD CE DC z2 | "Bb"B,C DF GF BG | FD CD B,2 B,2 | "E"E_A =BE AB EA | =BE _A_G E_D EG | 
"G"GE DG "G#"ED =B,D | "A"A,C EG A2 A,C | "Dm"DC DE FE FG | A2 A2 A2 EF | "C"GA GF EF ED | 
CD B,C "Am"A,2 A,C | "Dm"DC DE FE FG | AG AB A2 FG | "C"A2 G2 "Am"E2 C2 | [f2d2A2D2] [fdAD][fdAD] [f4d4A4D4] :| "Gm"gf g2 dc dA | 
BG AF GG G2 | "D7"D_G A=B ce a_a | _gd g_a =aa ae | "F"FA cd _ee ed | c2 A2 G2 F2 | 
"Bb"B2 B2 c2 _d2 | d2 dd d4 | "Gm"gf g2 d3A | BG AF GG G2 | "D7"D_G A=B ce a_a | 
_gd g_a =a2 A2 | "F"FG AF GA FG | AF G2 F4 | "E"E,_G, _A,=B, _DE, B,2 | "A7"A,=B, E_D G2 G2 | 
D2 DE F2 FG | "Dm"A2 AB AG EF | "C"G/4F/4E3/8Dz/8 DE DC A,=B, | CD =B,D "Am"_B,D A,C | 
"Dm"D2 DE FE FG | A2 AB AG EG | "C"[c2A2] [c2G2] "Am"[c2G2E2] [G2E2C2] | "Dm"[f8d8A8D8] | 


